X:1
T:So droegh Kleopatra
T:So droegh Kleopatra
T:Drk Janszoon Swelinck
C:Drk Janszoon Swelinck
%%score [ 1 2 ]
L:1/8
Q:1/4=120
M:2/2
K:F
V:1 treble nm="Soprano" snm="S"
V:2 treble-8 nm="Tenor" snm="T"
V:1
 c4 A3 B | c3 d c2 c2 | d2 c2 d2 e2 | f4 z2 e2 | f3 e f2 g2 | c4 c4 | d2 c2 c2 =B2 | c4 z2 c2 | %8
w: So droegh Kle-|o- pa- tra, in|schoon- heyd zon- der|ga, den|dap- pe- ren An-|toon, haer|sep- ter en haer|kroon, en|
 F2 f2 g2 g2 | f2 ed c2 c2 | d2 c2 B2 B2 | A4 z2 A2 | G2 F2 E2 F2 | G4 F2 F2 | F2 G2 A2 B2 | %15
w: * op, met haer|trouw, _ _ _ toen|hy naar Par- then|zou, hy|docht om gee- ne|Par- then, en|koos voor de- sen|
 c2 c2 d2 e2 | f2 a2 g4 | f8 |] %18
w: slagh, een velt- slagh|van twee har-|ten.|
V:2
 f4 F3 G | A3 B c2 A2 | B2 A2 G2 G2 | F4 z2 c2 | F3 G A2 E2 | F4 A4 |"^(1)" =B2 c2 d2 d2 | %7
w: So droegh Kle-|o- pa- tra, in|schoon- heyd zon- der|ga, den|dap- pe- ren An-|toon,, haer|sep- ter en haer|
 c4 z2 A2 | B2 d2 B2 c2 | F3 G A2 A2 |"^(2)""^(3)" B2 c2 d2 e2 | f4 z2 F2 | E2 F2 C2 D2 | %13
w: kroon, en|rijck op, met haer|trouw _ _ toen|hy naar Par- then|zou, hy|docht om gee- ne|
 C4 F2 A2 | A2 A2 c2 B2 | A2 f2 f2 g2 | a2 f2 e4 | f8 |] %18
w: Par- then, en|koos voor de- sen|slagh, een velt- slagh|van twee har-|ten.|

